X: 1812
T: Archie's Fancy
R: waltz
M: 3/4
K: Gmajor
|:(3Bc^c|d2 g3 d|B2 g2 d2|(3fgf e2 c2|E4 AB|c2 A2 F2|D2 F2 A2|e2 d3 c|B/c/B- B2 (3Bc^c|
d2 g3 d|B2 g2 d2|(3fgf e2 c2|E4 AB|c2 a3 g|f2 e2 f2|(3gag d/z/g B/z/g|G4:|
|:(3Bc^c|d2 b3 a|g2 d2 Bd|c2 a3 g|f/g/f- f2 AB|c2 a3 g|f2 e2 f2|g2 b3 g|d4 (3Bc^c|
d2 b3 a|g2 d2 Bd|c2 a3 g|f/g/f- f2 AB|c2 a3 g|f2 e2 f2|(3gag d/z/g B/z/g|G4:|

